assets/icons/calendar.svg

<svg height="24" viewBox="0 0 24 24" width="24" xmlns="http://www.w3.org/2000/svg"><g fill="#707070"><path d="m0 0h24v24h-24z" opacity="0"/><path d="m18 4h-1v-1a1 1 0 1 0 -2 0v1h-6v-1a1 1 0 1 0 -2 0v1h-1a3 3 0 0 0 -3 3v12a3 3 0 0 0 3 3h12a3 3 0 0 0 3-3v-12a3 3 0 0 0 -3-3zm-12 2h1v1a1 1 0 0 0 2 0v-1h6v1a1 1 0 0 0 2 0v-1h1a1 1 0 0 1 1 1v4h-14v-4a1 1 0 0 1 1-1zm12 14h-12a1 1 0 0 1 -1-1v-6h14v6a1 1 0 0 1 -1 1z"/><circle cx="8" cy="16" r="1"/><path d="m16 15h-4a1 1 0 0 0 0 2h4a1 1 0 0 0 0-2z"/></g></svg>

<svg xmlns="http://www.w3.org/2000/svg" width="24" height="24" viewBox="0 0 24 24"><rect width="24" height="24" fill="#707070" opacity="0"/><path d="M18,4H17V3a1,1,0,1,0-2,0V4H9V3A1,1,0,1,0,7,3V4H6A3,3,0,0,0,3,7V19a3,3,0,0,0,3,3H18a3,3,0,0,0,3-3V7a3,3,0,0,0-3-3ZM6,6H7V7A1,1,0,0,0,9,7V6h6V7a1,1,0,0,0,2,0V6h1a1,1,0,0,1,1,1v4H5V7A1,1,0,0,1,6,6ZM18,20H6a1,1,0,0,1-1-1V13H19v6A1,1,0,0,1,18,20Z" fill="#707070"/><circle cx="1" cy="1" r="1" transform="translate(7 15)" fill="#707070"/><path d="M16,15H12a1,1,0,0,0,0,2h4a1,1,0,0,0,0-2Z" fill="#707070"/></svg>
